icons/line/phone.svg

<svg width="24" height="24" viewBox="0 0 24 24" fill="none" xmlns="http://www.w3.org/2000/svg">
<path d="M13 18.6748C14.9304 19.5049 17.2424 20 20 20V16L16 15L13 18.6748ZM13 18.6748C9.15896 17.023 6.82392 14.0447 5.5 11M5.5 11C4.40075 8.47198 4 5.89819 4 4H8L9 8L5.5 11Z" stroke="currentColor" stroke-width="2" stroke-linecap="round" stroke-linejoin="round"/>
</svg>

<svg width="24" height="24" fill="none" xmlns="http://www.w3.org/2000/svg"><path d="M13 18.675c1.93.83 4.242 1.325 7 1.325v-4l-4-1-3 3.675zm0 0C9.159 17.023 6.824 14.045 5.5 11m0 0C4.4 8.472 4 5.898 4 4h4l1 4-3.5 3z" stroke="currentColor" stroke-width="2" stroke-linecap="round" stroke-linejoin="round"/></svg>
